!! 00000] TT[WS
!!!OTL: Guan deng
!!!ARE: Asia, China, Shanxi Qiuwu
!! Ethnic Group: Han
!! WI, 176
!!!SCT: J0209
!!!YEM: Copyright 1995, estate of Helmut Schaffrath.
**kern
*ICvox
*Ivox
*M2/4
*k[f#c#g#]
*A:
{8cc#
16ee
16ee
8cc#
8ee
=1
8cc#
8ee
4cc#
=2
8cc#
16ee
16ee
8cc#
8ee
=3
8cc#
8ee
4cc#}
=4
{8aa
16aa
16ff#
[4ee
=5
8ee]
16ee
16cc#
4b
=6
8.ee
16ff#
8.ee
16ff#
=7
8.cc#
16b
8.a
16e}
=8
{8cc#
8f#
8cc#
16cc#
16cc#
=9
8f#
8cc#
8b
8a
=10
8a
8e
8a
8f#
=11
2e}
=12
{8a
8f#
[4a
=13
8a]
4b
8a
=14
4b
8a
8f#
=15
8a
8f#
4e}
=16
{8cc#
8ee
8cc#
8r
=17
8cc#
8ee
8cc#
8r
=18
8cc#
8ee
8cc#
8ee
=19
8cc#
8ee
8cc#
8r}
=20
{8.cc#
16ee
8a
8b
=21
2ee
=22
8.g#
16cc#
8b
8a
=23
8a
8f#
8.ee
16cc#
=24
8.b
16a
8a
8e
=25
8a
8f#
4e}
==
!!!AGN: Xiaodiao. Fengsuge, Qingge
!!!ONB: ESAC (Essen Associative Code) Database: CHINA
!!!AMT: simple duple
!!!AIN: vox
!!!EED: Helmut Schaffrath
!!!EEV: 1.0
*-
!!!ONB: Tied note syntax fixed by Craig Sapp, 2004/05/03/
